X:1
T:Title
L:1/8
M:4/4
K:Bb
V:1 treble nm="Grand Piano"
V:1
 z4 z2[Q:1/4=100] GF | G2 D2 E2 FF | E2 D4 GF | G2 D2 EE F2 | E6 CD | E2 DE F2 EF | G2 FG A3 c | %7
 cAAF FEED | D6 BB | B2 c2 d2 dc | d2 c/B/A- A2 A2 | A2 B2 c2 c=B | dc B/A/G- G2 G2 | G2 A2 B2 BA | %14
 cBAG F3 F | F2 E2 G2 E2 | D6 z2 |] %17

